image/icons/whatsapp-gray.svg

<svg width="30" height="30" viewBox="0 0 30 30" fill="none" xmlns="http://www.w3.org/2000/svg">
<g clip-path="url(#clip0_2_203)">
<path d="M14.2498 0.00485416C11.842 0.0339202 6.66541 0.429594 3.77005 3.08586C1.61635 5.21987 0.864381 8.37495 0.776245 12.2764C0.703111 16.1637 0.614975 23.464 7.65178 25.4517V28.4793C7.65178 28.4793 7.60771 29.6907 8.40844 29.9392C9.39481 30.2514 9.95644 29.3194 10.8941 28.318L12.6427 26.3406C17.4574 26.741 21.145 25.8183 21.5697 25.6815C22.5467 25.3692 28.0496 24.666 28.9488 17.3648C29.8714 9.8245 28.4997 5.0736 26.0234 2.92459H26.0084C25.2611 2.23638 22.258 0.0479845 15.5484 0.0236065C15.5484 0.0236065 15.0505 -0.0101477 14.2498 0.00391654V0.00485416ZM14.3323 2.1248C15.0158 2.12012 15.4312 2.14918 15.4312 2.14918C21.1103 2.16418 23.821 3.87346 24.4604 4.44915C26.5457 6.23625 27.6202 10.5193 26.8335 16.8144C26.0862 22.9183 21.6232 23.3046 20.7972 23.5681C20.4455 23.6806 17.1976 24.4813 13.1059 24.2178C13.1059 24.2178 10.0586 27.8952 9.10602 28.8422C8.95507 29.0081 8.77879 29.0569 8.66628 29.0325C8.50501 28.9931 8.45626 28.7934 8.46563 28.5196L8.4947 23.4949C2.52677 21.8447 2.87838 15.618 2.94214 12.3654C3.01527 9.11285 3.62566 6.4519 5.44276 4.6498C7.889 2.43797 12.2845 2.13981 14.3304 2.1248H14.3323ZM14.7823 5.37645C14.7332 5.37596 14.6845 5.38519 14.639 5.40362C14.5934 5.42204 14.552 5.4493 14.517 5.48381C14.4821 5.51833 14.4543 5.55942 14.4353 5.60472C14.4163 5.65002 14.4065 5.69863 14.4064 5.74775C14.4064 5.95778 14.577 6.12373 14.7823 6.12373C15.712 6.10605 16.6359 6.2726 17.5009 6.61376C18.3659 6.95492 19.1548 7.46394 19.822 8.11148C21.1844 9.43445 21.8482 11.2122 21.8735 13.5365C21.8735 13.7419 22.0395 13.9125 22.2495 13.9125V13.8975C22.3485 13.8978 22.4436 13.8589 22.514 13.7893C22.5844 13.7198 22.6245 13.6252 22.6255 13.5262C22.671 12.4322 22.4936 11.3403 22.104 10.3169C21.7144 9.29355 21.1208 8.3601 20.3593 7.57329C18.875 6.1228 16.9942 5.37552 14.7823 5.37552V5.37645ZM9.84018 6.23625C9.57478 6.19747 9.30411 6.25074 9.07321 6.3872H9.05352C8.51745 6.70144 8.03453 7.09859 7.62271 7.56391C7.28048 7.95959 7.09484 8.35995 7.04608 8.74531C7.01701 8.97502 7.0367 9.20474 7.10515 9.42414L7.12953 9.43914C7.51489 10.5718 8.01839 11.6613 8.63346 12.687C9.42577 14.1281 10.4008 15.4609 11.5344 16.6522L11.5682 16.701L11.6216 16.7404L11.6554 16.7797L11.6948 16.8135C12.8905 17.9504 14.2264 18.93 15.6703 19.7285C17.3205 20.6268 18.3218 21.0515 18.9229 21.2278V21.2372C19.0991 21.2906 19.2595 21.315 19.4207 21.315C19.9329 21.2775 20.4178 21.0695 20.7981 20.7243C21.2613 20.3124 21.654 19.8275 21.9607 19.2888V19.2794C22.2486 18.7375 22.1511 18.2246 21.7357 17.8777C20.9039 17.1506 20.0043 16.5047 19.0494 15.949C18.41 15.6021 17.7602 15.8121 17.4967 16.1637L16.9351 16.8716C16.6473 17.2232 16.1241 17.1745 16.1241 17.1745L16.1091 17.1838C12.2077 16.1872 11.1669 12.237 11.1669 12.237C11.1669 12.237 11.1181 11.6997 11.4791 11.426L12.1823 10.8596C12.5189 10.5858 12.7533 9.93702 12.3924 9.29663C11.8405 8.3404 11.1961 7.44066 10.4684 6.61036C10.3093 6.41461 10.0861 6.28143 9.8383 6.23437L9.84018 6.23625ZM15.4312 7.35014C14.9333 7.35014 14.9333 8.1021 15.4359 8.1021C16.055 8.11215 16.666 8.24409 17.2341 8.4904C17.8021 8.73671 18.3161 9.09255 18.7466 9.53759C19.1393 9.97078 19.441 10.4784 19.634 11.0303C19.8269 11.5823 19.9071 12.1673 19.8698 12.7508C19.8716 12.8496 19.9119 12.9437 19.9821 13.0131C20.0524 13.0825 20.1471 13.1216 20.2458 13.1221L20.2608 13.1418C20.3603 13.1411 20.4555 13.1012 20.5259 13.0309C20.5962 12.9605 20.6361 12.8653 20.6368 12.7658C20.6706 11.2759 20.2074 10.0261 19.2988 9.02472C18.3856 8.02334 17.1114 7.46171 15.4846 7.35014H15.4312V7.35014ZM16.0472 9.37163C15.5343 9.35663 15.5146 10.1236 16.0228 10.1386C17.2586 10.2024 17.8587 10.8268 17.9374 12.1113C17.9391 12.2089 17.979 12.3018 18.0483 12.3703C18.1177 12.4388 18.2112 12.4775 18.3087 12.478H18.3237C18.3739 12.4758 18.4231 12.4637 18.4685 12.4423C18.5139 12.4209 18.5546 12.3907 18.5882 12.3535C18.6218 12.3162 18.6476 12.2726 18.6642 12.2252C18.6808 12.1779 18.6877 12.1277 18.6847 12.0776C18.5966 10.403 17.6833 9.45977 16.0622 9.37257H16.0472V9.37163Z" fill="#E0E0E0"/>
</g>
<defs>
<clipPath id="clip0_2_203">
<rect width="30" height="30" fill="white"/>
</clipPath>
</defs>
</svg>

<svg width="30" height="30" fill="none" xmlns="http://www.w3.org/2000/svg"><g clip-path="url(#a)"><path d="M14.25.005C11.842.034 6.665.43 3.77 3.085 1.616 5.22.864 8.376.776 12.277.703 16.164.615 23.464 7.652 25.452v3.027s-.044 1.212.756 1.46c.987.312 1.548-.62 2.486-1.621l1.749-1.977c4.814.4 8.502-.523 8.927-.66.977-.312 6.48-1.015 7.379-8.316.922-7.54-.45-12.291-2.926-14.44h-.015c-.747-.689-3.75-2.877-10.46-2.901 0 0-.498-.034-1.298-.02zm.082 2.12c.684-.005 1.1.024 1.1.024 5.678.015 8.389 1.724 9.028 2.3 2.086 1.787 3.16 6.07 2.373 12.365-.747 6.104-5.21 6.49-6.036 6.754-.352.113-3.6.913-7.691.65 0 0-3.047 3.677-4 4.624-.15.166-.327.215-.44.19-.161-.039-.21-.239-.2-.512l.029-5.025c-5.968-1.65-5.617-7.877-5.553-11.13.073-3.252.684-5.913 2.5-7.715 2.447-2.212 6.842-2.51 8.888-2.525h.002zm.45 3.251a.372.372 0 0 0-.376.372c0 .21.171.376.376.376a7.044 7.044 0 0 1 5.04 1.987c1.362 1.323 2.026 3.101 2.052 5.425 0 .206.166.377.376.377v-.015a.375.375 0 0 0 .375-.372 8.077 8.077 0 0 0-2.266-5.953c-1.484-1.45-3.365-2.197-5.577-2.197zm-4.942.86a1.174 1.174 0 0 0-.767.151h-.02a5.885 5.885 0 0 0-1.43 1.177c-.343.396-.528.796-.577 1.181-.029.23-.01.46.06.68l.024.014a16.9 16.9 0 0 0 1.503 3.248 19.103 19.103 0 0 0 2.901 3.965l.034.049.054.04.033.039.04.034a19.381 19.381 0 0 0 3.975 2.915c1.65.898 2.652 1.323 3.253 1.499v.01c.176.053.337.077.498.077a2.3 2.3 0 0 0 1.377-.59 5.685 5.685 0 0 0 1.163-1.436v-.01c.288-.541.19-1.054-.225-1.401a17.314 17.314 0 0 0-2.687-1.929c-.639-.347-1.289-.137-1.552.215l-.562.708c-.288.351-.81.302-.81.302l-.016.01c-3.901-.997-4.942-4.947-4.942-4.947s-.049-.537.312-.811l.703-.566c.337-.274.571-.923.21-1.563a16.87 16.87 0 0 0-1.924-2.687 1.069 1.069 0 0 0-.63-.376l.002.002zm5.591 1.114c-.498 0-.498.752.005.752a4.713 4.713 0 0 1 3.31 1.436 4.37 4.37 0 0 1 1.124 3.213.378.378 0 0 0 .376.371l.015.02a.379.379 0 0 0 .376-.376c.034-1.49-.43-2.74-1.338-3.741-.913-1.002-2.188-1.563-3.814-1.675h-.054zm.616 2.022c-.513-.015-.532.752-.024.767 1.236.063 1.836.688 1.914 1.972a.373.373 0 0 0 .372.367h.015a.378.378 0 0 0 .36-.4c-.087-1.675-1-2.618-2.622-2.705h-.015v-.001z" fill="#E0E0E0"/></g><defs><clipPath id="a"><path fill="#fff" d="M0 0h30v30H0z"/></clipPath></defs></svg>
